X:156
T:156  New Drops Of Brandy   (E/J)
C:not the usual version
M:9/8
S:James Winder Ms, Lancashire, 1835-41
R:Slip Jig
A:Wyresdale,Lancashire
H:1/8
Z:vmp.Chris Partington, Aug 2004
K:G
G2B B>AB B>AB|G2B B>AG Bdg|G2B B>AB B>AG|A3 EFG FED:|!
|:G2B gdB gdB|G2B gdB d2g|G2B gdB gdB|cde edB A2B:|





%vocalfont Times-Roman 13.0
